Origami/16x16/apps/stride.svg

<svg width="16" height="16" version="1.1" viewBox="0 0 16 16" xmlns="http://www.w3.org/2000/svg">
 <path d="m4.5591809 0.99999988c-0.3160015 3.232e-5 -0.5721628 0.26173772-0.5721947 0.58457752 0 2.6524924-0.4792592 4.5211835-0.9711667 5.2959526-0.2787367 0.4390184-0.4916933 0.67118-0.8270004 0.8357631-0.3353067 0.1645827-0.750334 0.266599-1.6166241 0.266599-0.31600157 3.25e-5 -0.5721635 0.2617382-0.57219491 0.5845779v4.847952c3.162963e-5 0.32284 0.2561935 0.584546 0.57219491 0.584578 3.1202567 0 5.951799-1.411648 7.5039117-3.856271 1.5242286-2.4007045 1.9238933-5.3130799 1.9238933-8.5591516-3.1e-5 -0.32284-0.2561931-0.5845454-0.5721947-0.58457752z" style="fill-rule:evenodd;fill:#115ccc"/>
 <path d="m4.6048159 0.99999988c-0.4459476 1.9422e-4 -0.7380894 0.46401672-0.5434867 0.86287342l5.7547027 11.798664c0.101122 0.207143 0.3124521 0.338609 0.5440761 0.338463h5.035365c0.445538-4.03e-4 0.737476-0.463587 0.543487-0.862287l-5.754702-11.799251c-0.10103-0.2069523-0.3120761-0.3383838-0.5434873-0.33846222z" style="fill:#3387f5"/>
</svg>

<svg xmlns="http://www.w3.org/2000/svg" width="16" height="16" version="1.1" viewBox="0 0 16 16">
 <path style="fill:#115ccc;fill-rule:evenodd" d="M 4.5591809,0.99999988 C 4.2431794,1.0000322 3.9870181,1.2617376 3.9869862,1.5845774 3.9869862,4.2370698 3.507727,6.1057609 3.0158195,6.88053 2.7370828,7.3195484 2.5241262,7.55171 2.1888191,7.7162931 1.8535124,7.8808758 1.4384851,7.9828921 0.57219501,7.9828921 0.25619344,7.9829246 3.1509314e-5,8.2446303 1.0190476e-7,8.56747 l 0,4.847952 C 3.1731535e-5,13.738262 0.2561936,13.999968 0.57219501,14 3.6924517,14 6.523994,12.588352 8.0761067,10.143729 9.6003353,7.7430245 10,4.8306491 10,1.5845774 9.999969,1.2617374 9.7438069,1.000032 9.4278053,0.99999988 Z"/>
 <path style="fill:#3387f5" d="M 4.6048159,0.99999988 C 4.1588683,1.0001941 3.8667265,1.4640166 4.0613292,1.8628733 L 9.8160319,13.661537 C 9.9171539,13.86868 10.128484,14.000146 10.360108,14 l 5.035365,0 c 0.445538,-4.03e-4 0.737476,-0.463587 0.543487,-0.862287 L 10.184258,1.3384621 C 10.083228,1.1315098 9.8721819,1.0000783 9.6407707,0.99999988 Z"/>
</svg>
